!!!COM: Augusta Holme\s
!!!CNT: Francais
!!!TXO: Francais
!!!OTL: "Charme-du-jour (Se/re/nade Mauresque)"
!!!LYR: 
!!!OPR: 
!!!OPS: Op. 
!!!ONM: No. 
!!!ENC: Alyona Dzerbina
!!!YOR: Augusta Holme\s, Se/re/nade maresque
!!!YOR: Da Capo Press, New York, 1984
!!!ODT: 1899/
!!NB: Vocal melody and text encoded.
**kern	**text
*staff1	*staff1
=1-	=1-
*clefG2	*
*k[f#c#g#d#]	*
*M3/4	*
2.r	.
=2	=2
2.r	.
=3	=3
2.r	.
=4	=4
{8b	{Ta
4b	le\vre
8g#	est
(bq	u-
16a)	|
16g#	-ne
16a	bois-
16b	-son
=5	=5
8b	frai^-
4b	-che
8g#	Qui
(bq	bru^-
16a	|
16g#)	|
16a	-le
16cc#	mon
=6	=6
(8ee	coe-
4b)	-ur
8g#	Qui
(16f#	bru^-
16e)	|
16f#	-le
16g#	mon
=7	=7
2e}	coeur!}
4r	.
=8	=8
{16b	{L'a-
16b	-ne/-
4b	-mo-
8g#	-ne
(g#q	ro-
bq	|
16a	|
16b)	-se
16cc#	et
16ff#	la
=9	=9
(16ee	pe^-
48dd#	|
48ee	|
48dd#	|
16b)	|
16g#}	-che}
8r	.
{8b	{Se
16ddn	me^-
16ee	-lent
16dd	sur
16ee	ta
=10	=10
(16dd#	jou-
48cc#	|
48dd#	|
48cc#)	|
8a	-e,
8r	.
16b	Sur
16ee	ta
8dd#	joue
8cc#	en
(dd#q	|
cc#q)	|
=11	=11
[4g#	fleur!
8g#]	|
8b	Se
16ccn	me^-
16ddn	-lent
16cc	sur
16dd	ta
=12	=12
(16b	jou-
48a	|
48b	|
48a)	|
8gn	-e,
8r	.
16a	Sur
16b	ta
8dd#	joue
8b	en
=13	=13
[4ee	fleur!
8ee]}	|}
8r	.
4r	.
=14	=14
2.r	.
=15	=15
{16b	{Ton
16b	re-
4b	-gard,
8b	sous
(bq	ta-
ddnq	|
16ccn	|
16b)	|
16cc	che-
16ee	-ve-
=16	=16
(8ggn	-lu-
4ddn)	-re,
8dd	E-
8ff#	-clair
(24ee	dans
24ff#)	|
24ee	la
=17	=17
[4b	nuit!
8b]	 |
8b	E-
(bq	cla-
16a	ir
16gn)	|
16a	dans
16ccn	la
=18	=18
[4b	nuit!
8b]}	|}
{8b	{Ra-
(16ccn	-ya-
8ee)	|
16dd#	-mon
=19	=19
(dd#q	coeur
4b	|
4b)	|
8ee	d'u-
16ee	-ne
16dd#	fe/-
=20	=20
(4ff#	-lu-
4f#)	-re
8.b	D'ou\
16b	ma
=21	=21
(8.gg#	for-
48ff#	|
48gg#	|
48ff#	|
8.ee	|
48dd#	|
48ee	|
48dd#	|
8.ccn	|
48b	|
48cc	|
48b	|
=22	=22
8a#)	-ce
8gn	vers
(8g	toi
4ee)	|
8dd#	s'en-
=23	=23
(dd#q	-fuit!
4b	|
8b)}	|}
8r	.
4r	.
=24	=24
2.r	.
=25	=25
{8b	{Fleur
16b	de
16b	gre-
8b	-nade
8g#	et
(g#q	ro-
bq)	|
(16a	|
16g#	|
16a)	|
16cc#	-se
=26	=26
(8ee	blan-
4b)	-che,
8ee	O
(8ff#	"Char-
32dd#	|
32cc#	|
32dd#	|
32cc#	|
=27	=27
*M2/4	*
4dd#	-me
12cc#	du
12dd#	|
12cc#	|
=28	=28
*M3/4	*
[4g#)	Jour!"
8g#]	|
(8ee	O
16f#	"Char-
16e)	|
16f#	-me
16g#	du
=29	=29
[2e	Jour!"
8e]}	|}
8r	.
=30	=30
{16b	{Les
16b	ba-
4b	-lan-
8g#	-ce
(g#q	ments
bq	|
16a	|
16b)	|
16cc#	de
16ff#	ta
=31	=31
(16ee	han-
16dd#	|
eeq	|
&dd#q&	|
16b	|
16g#)	-che
8r	.
(8b	Scan-
16ddn)	|
16ee	-dent
16dd	mes
16ee	po-
=32	=32
(16dd#	e/
48cc#	|
48dd#	|
48cc#	|
8a)	-mes,
8r	.
16b	mes
16ee	po-
(8dd#	e^
8cc#)	-mes
=33	=33
(dd#q	d'a-
cc#q)	|
[4g#	-mour!
8g#]}	|}
{(8b	{Scan-
16ccn)	|
16ddn	-dent
16cc	mes
16dd	po-
=34	=34
(16b	e^
48a	|
48b	|
48a)	|
8gn	-mes,
8r	.
16a	mes
16b	po-
8dd#	-e^-
16cc#	-mes
16b	d'a-
=35	=35
2ee}	-mour!}
4r	.
=36	=36
2.r	.
=37	=37
{8b	{Et
4b	si,
16b	dans
16b	la
(dd#q	so-
16cc#	|
16b)	-if
16a	e/-
16cc#	-ter-
=38	=38
(8ee	-nel-
4b)	-le,
8b	Par-
(bq	mi
16a	|
16gn)	|
16a	-les
16ccn	mau-
=39	=39
[4b	-dits,
8b]}	|}
{8gn	{Par-
(gq	-mi-
16f#	|
16e)	|
16f#	-les
16g	mau-
=40	=40
[4f#	-dits,
8f#]	|
8b	Un
8.ccn	Djinn
32cc	m'ap-
32cc	-por-
=41	=41
8.b	-tait
32b	sous
32b	son
4ee	ai-
8dd#	-le
16b	De
16b	la
=42	=42
(4ffn	nei-
8b)	-ge
8ff	du
8ff	Pa-
8ff	-ra-
=43	=43
2.ff#	-dis,
=44	=44
[4ff#	|
4ff#]}	|}
8r	.
{16b	{Je
16b	crie-
=45	=45
8ee	-rais:
16r	.
16dd#	Va-
4ff#	-t'en!
8ee	Car
8dd#	j'im-
=46	=46
(24ff#	-plo-
24ee	|
24dd#	|
24cc#	|
24dd#	|
24cc#)	|
8a	-re
8b	Al-
8dd#	-lah
16cc#	le
16a	Cle/-
=47	=47
[4f#	-ment!
8f#]}	|}
8r	.
{8.b	{"La
16b	re-
=48	=48
4gg#	-voir!
8ff#	La
8ff#	re-
8ee	-voir
8dd#	en-
=49	=49
(16ff#	-co-
16ee	|
ff#q	|
&eeq&	|
16cc#	|
16a)}	-re,}
4r	.
{8.ee	{Et
16dd#	souf-
=50	=50
2b	-frir
16a	e/-
16b	-ter-
16dd#	-nel-
16cc#	-le-
(dd#q	|
cc#q)	|
=51	=51
[4g#	-ment!
8g#]	|
8r	.
(8.ee	Et
16dd#)	souf-
=52	=52
2b	-frir
16ccn	e/-
16ddn	-ter-
16ff#	-nel-
16ee	-le
=53	=53
(ff#q	|
eeq)	|
[4b	-ment!
8b]}	|}
{16b	{La
16b	re-
8.ffn	-voir
16b	en-
=54	=54
(4ff#	co
8a#)	-re
16ff#	La
16ff#	re-
8.ggn	-voir
16cc#	en-
=55	=55
(4gg#	-co-
4b#)	-re,
(6dd#	Et
12g#)	souf-
=56	=56
(12b	-frir
12ee	e/-
12cc#)	-ter-
4..ff#	-nel-
16gg#	-le-
=57	=57
[2gg#	-ment!"
8gg#]}	|}
8r	.
=58	=58
2.r	.
=59	=59
2.r	.
=60	=60
2.r	.
==	==
*-	*-
